icons/blood_pressure_monitor_fill.svg

<svg width="48" height="48" viewBox="0 0 48 48" fill="none" xmlns="http://www.w3.org/2000/svg">
<path fill-rule="evenodd" clip-rule="evenodd" d="M35 9.5C35 7.567 36.567 6 38.5 6C40.433 6 42 7.567 42 9.5V15.5C42 17.0827 40.9495 18.4201 39.5076 18.8528C39.5158 19.9067 39.5294 20.9275 39.5426 21.9138C39.5922 25.6347 39.6352 28.8635 39.356 31.5168C38.9558 35.3206 37.865 38.3118 34.8998 40.0594C31.5327 42.0438 26.6951 42.6429 22.7287 42.1435C20.7381 41.8929 18.8728 41.3549 17.4738 40.4998C16.4595 39.8798 15.6179 39.0406 15.2301 37.9774C13.1448 37.8844 11.0703 37.5052 9.42952 36.8249C7.66523 36.0935 6 34.8246 6 32.8396V13.1221H6.00292C6.00098 13.0815 6 13.0408 6 13C6 10.2386 10.4772 8 16 8C21.5228 8 26 10.2386 26 13C26 13.0408 25.999 13.0815 25.9971 13.1221H26V19.0709C26.1274 19.0891 26.2537 19.1108 26.3788 19.1358C26.67 19.1939 26.9548 19.2702 27.2318 19.3633C30.0035 20.295 32 22.9143 32 26C32 29.5268 29.3918 32.4445 25.999 32.9293C25.9525 34.9442 24.3416 36.2197 22.5645 36.9429C21.1162 37.5323 19.3353 37.8622 17.5114 37.9649C17.752 38.2509 18.0832 38.5283 18.5169 38.7934C19.5904 39.4496 21.1519 39.9292 22.9785 40.1592C26.6466 40.621 31.0049 40.0334 33.8843 38.3364C36.027 37.0735 36.9902 34.8886 37.367 31.3076C37.6332 28.7779 37.5925 25.7354 37.5437 22.0844L37.5437 22.083C37.53 21.0566 37.5156 19.9819 37.5073 18.8572C36.0578 18.4293 35 17.0882 35 15.5V9.5ZM22.1766 14.7467C23.7737 13.9482 24 13.2151 24 13C24 12.7849 23.7737 12.0518 22.1766 11.2533C20.6992 10.5146 18.5183 10 16 10C13.4817 10 11.3008 10.5146 9.82336 11.2533C8.22632 12.0518 8 12.7849 8 13C8 13.2151 8.22632 13.9482 9.82336 14.7467C11.3008 15.4854 13.4817 16 16 16C18.5183 16 20.6992 15.4854 22.1766 14.7467ZM16 18C19.2712 18 22.1755 17.2147 24 16.0005V19.0709C23.8726 19.0891 23.7463 19.1108 23.6212 19.1358C23.33 19.1939 23.0452 19.2702 22.7682 19.3633C19.9965 20.295 18 22.9143 18 26C18 29.5256 20.6064 32.4424 23.9975 32.9287C23.9533 33.707 23.3243 34.4744 21.8105 35.0905C20.2859 35.711 18.179 36.0235 16.0114 35.9988C15.703 35.9953 15.3957 35.9849 15.0909 35.968V17.9796C15.3903 17.9931 15.6936 18 16 18ZM25 21.5L23.5 26.5L25 28.5L26.5 26.5L25 21.5Z" fill="black"/>
</svg>

<svg
  xmlns="http://www.w3.org/2000/svg"
  width="24"
  height="24"
  viewBox="0 0 24 24"
  fill="none"
  stroke="currentColor"
  stroke-width="2"
  stroke-linecap="round"
  stroke-linejoin="round"
>
  <path
    fill-rule="evenodd"
    d="M35 9.5a3.5 3.5 0 1 1 7 0v6c0 1.583-1.05 2.92-2.492 3.353q.013 1.581.035 3.06c.05 3.722.092 6.95-.187 9.604-.4 3.804-1.491 6.795-4.456 8.542-3.367 1.985-8.205 2.584-12.171 2.085-1.99-.251-3.856-.79-5.255-1.644-1.015-.62-1.856-1.46-2.244-2.523-2.085-.093-4.16-.472-5.8-1.152-1.765-.732-3.43-2-3.43-3.985V13.122h.003L6 13c0-2.761 4.477-5 10-5s10 2.239 10 5q0 .061-.003.122H26v5.949a7 7 0 0 1 1.232.292 7.003 7.003 0 0 1-1.233 13.566c-.046 2.015-1.657 3.29-3.434 4.014-1.449.59-3.23.92-5.054 1.022.241.286.572.563 1.006.828 1.073.657 2.635 1.136 4.462 1.366 3.668.462 8.026-.126 10.905-1.823 2.143-1.262 3.106-3.447 3.483-7.028.266-2.53.226-5.573.177-9.224v-.001q-.022-1.539-.037-3.226A3.5 3.5 0 0 1 35 15.5zm-12.823 5.247C23.774 13.948 24 13.215 24 13s-.226-.948-1.823-1.747C20.699 10.515 18.518 10 16 10s-4.7.515-6.177 1.253C8.226 12.052 8 12.785 8 13s.226.948 1.823 1.747C11.301 15.485 13.482 16 16 16s4.7-.515 6.177-1.253M16 18c3.271 0 6.176-.785 8-2v3.07a7 7 0 0 0-1.232.293 7.003 7.003 0 0 0 1.23 13.566c-.045.778-.674 1.545-2.187 2.161-1.525.621-3.632.933-5.8.909a21 21 0 0 1-.92-.031V17.98q.45.02.909.02m9 3.5-1.5 5 1.5 2 1.5-2z"
    clip-rule="evenodd"
  />
</svg>
